X:1
T:Ben mi credea
T:Ben mi credea
T:Girolamo Scotto
T:Source : Madrigali a tre voci---Venetia---G.Scotto---1541. Editor : André Vierendeels (05/08/16).
T:Notes : Original clefs : C3, C4, F4 Editorial accidentals above the staff Original note values have been halved "Septimi toni"  
T:#
T:©
T:©
T:©
T:©
T:©
T:©
C:Girolamo Scotto
Z:©
%%score [ 1 2 3 ]
L:1/8
Q:1/4=100
M:2/2
K:C
V:1 treble-8 nm="Tenor 1" snm="T 1"
V:2 treble-8 nm="Tenor 2" snm="T 2"
V:3 bass nm="Bass" snm="B"
V:1
 g4 g2 g2 | f2 f2 e2 c2 | c2 c2 d2 f2 | e2 e2 f3 e | d2 g4 f2 | g4 z2 c2 | c2 c2 g2 f2 | e2 g4 f2 | %8
w: Ben mi cre-|dea ho- mai del|mio a- mor pu-|ro'e ve- ra- *||ce, del|mio ser- vir con|fe- * *|
 g2 d2 d2 d2 | c2 c2 d2 d2 | e3 d c2 A2 | B2 d3 c/B/ c2 | d2 G2 G2 G2 | A2 A2 B2 B2 | c2 _B2 A4 | %15
w: de, don- na'im- pe-|trar da voi qual|che _ _ mer-|ce- * * * *|de, od' a- man-|ti spe- rar va-|no'e fal- la-|
 G2 g2 g2 g2 | g2 ^f2 g2 e2 | f2 d2 e2 g2- | g2 f2 g4 | d4 d2 d2 | e2 e2 f2 e2 | d2 g2 f2 e2- | %22
w: ce, od' a- man-|ti spe- rar va-|no'e fal- la- *|* * ce,|hor ch'io ti|veg- gi'ogn' hor piu|cru- da'e fe- *|
 e2 d2 e3 d | cBAG A3 B | cd e2 f2 e2 | dc c4 B2 | c2 G2 G2 c2 | c2 B2 B2 c2 | c2 c2 A4 | %29
w: ||||ra, che quan- to|piu soc- cor- so'e|mer- ce chia-|
 G2 B2 c2 d2 | e3 d c2 B2 | c2 d3 c c2- | c2 B2 c4 | z2 c2 c2 c2 | d2 e2 f2 e2- | e2 d2 e2 g2- | %36
w: mo, man- co'ha- ve-|te pie- ta del|mio lan- * gui-|* * re,|an- zi m'o-|dia- te piu quant'|_ i- o piu|
 gfed e2 d2- | dc c4 B2 | c4 z2 d2 | d2 d2 e2 dc | B2 B2 c2 f2- | fedc B2 e2 | d2 e4 c2 | %43
w: _ _ _ _ _ v'a-||mo et|e chi ser- * *|ve'a don- na'in- gra-||* * ta'e|
 f2 e3 f g2- |"^#" g2 f2 g2 e2 | e2 e2 e2 e2 | f2 f2 e2 d2 | d4 d2 e2 | e2 e2 g3 f | ed e2 g2 d2 | %50
w: al- tie- * *|* * ra, al-|tro non a per|pre- mio che mar-|ti- ri, io|me ne vo, _|_ _ _ _ io|
 e2 f2 f2 d2 | g2 c2 d2 e2 | f4 e4 | z2 d4 e2- | e2 d2 e4 | d8 |] %56
w: me ne vo a|dio re- stat' in|pa- ce,|re- stat'|_ in pa-|ce.|
V:2
 c4 c2 c2 | A2 A2 G2 G2 | A2 A2 B2 B2 | c3 B A4 | _B4 A4 | z2 G2 G2 G2 | A2 A2 B4 | c3 B A4 | %8
w: Ben mi cre-|dea ho- mai del|mio a- mor pu-|ro'e _ ve-|ra- ce,|del mio ser-|vir con fe-||
 G2 _B2 B2 B2 | AGFE D2 G2 | G2 G3 F/E/ F2 | G2 F2 E4 | D2 E2 E2 E2 | F2 F2 D2 D2 | E2 G4 F2 | %15
w: de, don- na'im- pe-|trar _ _ _ _ da|voi quel- * * *|che mer- ce-|de, od' a- man-|ti spe- rar va-|no'e fal- la-|
 GFED EFGA | Bc d3 c c2- | c2 B2 c3 B | A4 G4 | B4 B2 B2 | cBAG F2 G2 | G2 G2 A3 G | F4 E4- | %23
w: |||* ce,|hor ch'io ti|veg- * * * * gi'ogn'|hor piu cru- da'e|fe- ra,|
 E4 z2 A2 | A2 c2 A2 G2 | A6 GF | E2 D2 E4- | E2 G4 A2- |"^#" A2 G4 F2 | G4 z2 G2 | G2 A2 A2 G2 | %31
w: _ che|quan- to piu soc-|cor- * *|* so'e mer-|* ce chia-||mo, man-|'ha- ve- te pie-|
 E2 D2 E2 F2 | D4 C2 E2 | F2 G2 A2 A2 | B2 c2 A2 G2 | A4 B4 | c2 c4 G2 | G2 G2 A2 GF | %38
w: ta del mio lan-|gui- re, an-|zi m'o- dia- te|piu quant' io piu|va- *|* mo, et|e chi ser- * *|
 E2 F2 E2 D2 | G2 F2 E2 A2- | A2 G2 A2 _B2 | A2 F2 G4- | G4 z2 A2 | A2 A2 c2 B2 | A4 G2 G2 | %45
w: ve'a don- na'in- gra-|ta'e al- tie- *||* * ra,|_ a|don- na'in- gra- ta'e'al-|tie- ra, al-|
 G2 G2 c2 c2 | A2 B2 c2 B2- | B2 A2 B2 c2 | c2 c2 G2 G2- | G2 c4 B2 | A2 A2 d2 B2- | B2 A2 B2 c2- | %52
w: tro non a per|pre- mio che mar-|* ti- ri, io|me ne vo, io|_ me- ne|vo a dio re-|* stat' in pa-|
 c2 B2 cBAG | FE D2 G4 | G2 G2 G4 | G8 |] %56
w: |* * ce, re-|stat' in pa-|ce.|
V:3
 C,4 C,2 C,2 | D,2 D,2 E,2 E,2 |"^#" F,3 E, D,4 | C,4 D,2 F,2 | G,2 G,2 D,4 | G,2 E,2 E,2 E,2 | %6
w: Ben mi cre-|dea ho- mai del|mi- * *|o'a- mor pu-|ro'e ve- ra-|ce, del mio ser-|
 F,4 E,2 D,2 |"^#" C,4 D,4 | z2 G,,2 G,,2 G,,2 |"^b""^b" A,,2 A,,2 B,,2 B,,2 | C,3 B,, A,,4 | %11
w: vir con fe-|* de,|don- na'im- pe-|trar da voi qual-|che mer- ce-|
 G,,2 D,2 A,,4 | z2 C,2 C,2 C,2 | A,,2 D,2 G,,2 G,,2 | C,2 G,,2 D,2 D,2 | z2 C,2 C,2 C,2 | %16
w: * * de,|od' a- man-|ti spe- rar va-|no'e fal- la- ce,|od' a- man-|
 G,2 D,2 E,2 A,,2 | D,4 C,4 | D,4 G,,4 | G,4 G,2 G,2 | C,2 C,2 D,2 C,2 | B,,2 C,2 A,,4 | %22
w: ti spe- rar va-|no'e fal-|la- ce,|hor ch'io ti|veg- gi'ogn' hor piu|cru- da'e fe-|
 D,4 A,,2 C,2 | C,2 C,2 F,4- | F,2 C,2 D,2 E,2 | F,3 E, D,4 | C,2 B,,2 C,2 A,,B,, | %27
w: * ra, che|quan- to piu|_ soc- cor- so'e|mer- * ce-|* * de chia- *|
 C,D,E,F, G,2 F,2- | F,2 C,2 D,4 | z2 G,,2 A,,2 B,,2 | C,2 A,,B,, C,D, E,2 | A,,2 B,,2 C,2 F,,2 | %32
w: |* * mo,|man- co'ha- ve-|te pie _ _ _ _|ta del mio lan-|
 G,,2 G,,2 z2 C,2 | D,2 E,2 F,3 E, | D,2 C,2 D,2 E,2 | F,4 E,4 | C,4 A,,2 B,,2 | C,2 E,2 D,4 | %38
w: gui- re, an-|zi m'o- dia- *|* te piu quant'|io piu|v'a- mo, et|e chi ser-|
 C,2 A,,4 _B,,2 | G,,2 D,2 C,2 A,,2 | E,4 z2 D,2 | D,2 D,2 E,2 D,C, | B,,2 C,2 A,,2 A,,2 | %43
w: ve'a don- na'in-|gra- ta'e al- tie-|ra, et|e chi ser- * *|* ve'a don- na'in-|
 D,2 C,4 G,,2 | D,4 G,,2 C,2 | C,2 C,2 A,,2 A,,2 | D,2 D,2 C,2 G,2- | G,2 F,2 G,2 C,2 | %48
w: gra- ta'e al-|tie- ra, al-|tro non a per|pre- mio che mar-|* ti- ri, io|
 C,2 C,2 C,4 | z2 C,4 G,2- | G,2 F,2 D,2 G,2 | E,2 F,2 D,2 C,2 | D,4 C,4 | z2 B,,4 C,2- | %54
w: me ne vo,|io me-|* ne vo a|dio re- stat' in|pa- ce,|re- stat'|
 C,2 B,,2 C,4 | G,,8 |] %56
w: _ in pa-|ce.|

